source/img/nav/vk.svg

<svg width="18" height="10" viewBox="0 0 18 10" fill="none" xmlns="http://www.w3.org/2000/svg">
<path fill-rule="evenodd" clip-rule="evenodd" d="M8.80669 9.95813H9.88262C9.88262 9.95813 10.2076 9.92339 10.3735 9.7492C10.5263 9.58928 10.5214 9.28897 10.5214 9.28897C10.5214 9.28897 10.5004 7.88305 11.1704 7.67602C11.8309 7.47208 12.6791 9.03482 13.5781 9.63569C14.2579 10.0904 14.7745 9.99073 14.7745 9.99073L17.1783 9.95813C17.1783 9.95813 18.4358 9.8827 17.8396 8.91988C17.7907 8.84111 17.4923 8.20764 16.0523 6.90596C14.5451 5.54359 14.7469 5.76395 16.5625 3.40735C17.6683 1.97217 18.1103 1.09597 17.9722 0.720697C17.8405 0.363269 17.0273 0.457743 17.0273 0.457743L14.3207 0.474163C14.3207 0.474163 14.1201 0.44751 13.9713 0.53413C13.8259 0.619085 13.7323 0.817075 13.7323 0.817075C13.7323 0.817075 13.3039 1.92767 12.7326 2.87216C11.5274 4.86515 11.0455 4.97033 10.8486 4.84658C10.3904 4.55817 10.5048 3.68792 10.5048 3.06968C10.5048 1.13833 10.8056 0.333048 9.91903 0.124588C9.62482 0.0553397 9.40831 0.0096499 8.65592 0.00227289C7.6902 -0.00748379 6.87281 0.00512819 6.40999 0.225962C6.10209 0.372789 5.86457 0.699994 6.00923 0.718794C6.1881 0.742114 6.59326 0.825165 6.80805 1.11001C7.0854 1.47744 7.07563 2.30271 7.07563 2.30271C7.07563 2.30271 7.23495 4.57625 6.70346 4.85872C6.33863 5.05243 5.83818 4.65692 4.76372 2.84884C4.21317 1.92267 3.79751 0.898935 3.79751 0.898935C3.79751 0.898935 3.71736 0.707609 3.5744 0.605283C3.40091 0.481301 3.1585 0.4418 3.1585 0.4418L0.586584 0.458218C0.586584 0.458218 0.200492 0.46869 0.0587613 0.632174C-0.0673297 0.777572 0.0487424 1.07836 0.0487424 1.07836C0.0487424 1.07836 2.06229 5.66591 4.34219 7.97776C6.43271 10.0973 8.80669 9.95813 8.80669 9.95813Z" fill="white"/>
</svg>

<svg width="18" height="10" fill="none" xmlns="http://www.w3.org/2000/svg"><path fill-rule="evenodd" clip-rule="evenodd" d="M8.807 9.958h1.076s.325-.035.49-.209c.153-.16.148-.46.148-.46s-.02-1.406.65-1.613c.66-.204 1.508 1.359 2.407 1.96.68.454 1.197.355 1.197.355l2.403-.033s1.258-.075.662-1.038c-.05-.079-.348-.712-1.788-2.014-1.507-1.362-1.305-1.142.51-3.499 1.106-1.435 1.548-2.311 1.41-2.686-.132-.358-.945-.263-.945-.263l-2.706.016s-.2-.026-.35.06c-.145.085-.239.283-.239.283s-.428 1.11-1 2.055c-1.205 1.993-1.686 2.098-1.883 1.975-.459-.289-.344-1.16-.344-1.777 0-1.932.3-2.737-.586-2.945-.294-.07-.51-.115-1.263-.123-.966-.01-1.783.003-2.246.224-.308.147-.545.474-.4.493.178.023.583.106.798.391.277.367.268 1.193.268 1.193s.159 2.273-.373 2.556c-.364.193-.865-.202-1.94-2.01-.55-.926-.965-1.95-.965-1.95s-.08-.191-.224-.294C3.401.481 3.16.442 3.16.442L.587.458S.2.468.059.632c-.126.146-.01.446-.01.446s2.013 4.588 4.293 6.9c2.09 2.12 4.465 1.98 4.465 1.98z" fill="#fff"/></svg>
